icons/earth-west.svg

<svg width="24" height="24" viewBox="0 0 24 24" fill="none" xmlns="http://www.w3.org/2000/svg">
<path d="M12 21C13.1819 21 14.3522 20.7672 15.4442 20.3149C16.5361 19.8626 17.5282 19.1997 18.364 18.364C19.1997 17.5282 19.8626 16.5361 20.3149 15.4442C20.7672 14.3522 21 13.1819 21 12C21 10.8181 20.7672 9.64778 20.3149 8.55585C19.8626 7.46392 19.1997 6.47177 18.364 5.63604C17.5282 4.80031 16.5361 4.13738 15.4442 3.68508C14.3522 3.23279 13.1819 3 12 3C9.61305 3 7.32387 3.94821 5.63604 5.63604C3.94821 7.32387 3 9.61305 3 12C3 14.3869 3.94821 16.6761 5.63604 18.364C7.32387 20.0518 9.61305 21 12 21V21Z" stroke="white" stroke-width="2" stroke-linecap="round" stroke-linejoin="round"/>
<path d="M20.078 15.9721L14.988 12.8421C14.899 12.7875 14.7995 12.752 14.696 12.7381L12.556 12.4491C12.3954 12.4275 12.2321 12.4585 12.0906 12.5374C11.9491 12.6164 11.837 12.7391 11.771 12.8871L10.487 15.7691C10.4271 15.9031 10.4079 16.0518 10.4317 16.1967C10.4555 16.3416 10.5213 16.4763 10.621 16.5841L12.384 18.4901C12.4639 18.5764 12.5223 18.6803 12.5546 18.7934C12.5869 18.9065 12.5922 19.0256 12.57 19.1411L12.21 20.9971" stroke="white" stroke-width="2" stroke-linecap="round" stroke-linejoin="round"/>
<path d="M6.09001 5.21289L5.25001 7.19589C5.17582 7.3728 5.17224 7.57142 5.24001 7.75089L6.31601 10.6259C6.36016 10.7436 6.43322 10.8484 6.52845 10.9305C6.62369 11.0127 6.73805 11.0695 6.86101 11.0959L8.87101 11.5279C8.98245 11.552 9.08694 11.6011 9.17652 11.6717C9.26611 11.7422 9.33844 11.8322 9.38801 11.9349L9.74501 12.6719C9.80643 12.7987 9.90233 12.9056 10.0217 12.9804C10.1411 13.0552 10.2791 13.0949 10.42 13.0949H11.679" stroke="white" stroke-width="2" stroke-linecap="round" stroke-linejoin="round"/>
<path d="M14.293 3.29492L15.168 4.86292C15.2505 5.01102 15.2804 5.1827 15.2527 5.34995C15.2251 5.51721 15.1417 5.67018 15.016 5.78392L12.493 8.06592C12.4503 8.10452 12.4034 8.13807 12.353 8.16592L11.205 8.79992C11.0942 8.86132 10.9697 8.89366 10.843 8.89392H8.84C8.69273 8.89408 8.54876 8.9376 8.42606 9.01905C8.30335 9.1005 8.20734 9.21627 8.15 9.35192L7.369 11.2059" stroke="white" stroke-width="2" stroke-linecap="round" stroke-linejoin="round"/>
</svg>

<svg
  width="24"
  height="24"
  viewBox="0 0 24 24"
  xmlns="http://www.w3.org/2000/svg"
  fill="none"
  stroke="currentColor"
  stroke-width="2"
  stroke-linecap="round"
  stroke-linejoin="round"
>
  <path d="M12 21a9 9 0 1 0 0-18 9 9 0 0 0 0 18z" />
  <path d="M20.078 15.972l-5.09-3.13a.75.75 0 0 0-.292-.104l-2.14-.289a.75.75 0 0 0-.785.438l-1.284 2.882a.75.75 0 0 0 .134.815l1.763 1.906a.75.75 0 0 1 .186.651l-.36 1.856" />
  <path d="M6.09 5.213l-.84 1.983a.75.75 0 0 0-.01.555l1.076 2.875a.75.75 0 0 0 .545.47l2.01.432a.75.75 0 0 1 .517.407l.357.737a.75.75 0 0 0 .675.423h1.259" />
  <path d="M14.293 3.295l.875 1.568a.75.75 0 0 1-.152.92l-2.523 2.283a.749.749 0 0 1-.14.1l-1.148.634a.75.75 0 0 1-.362.094H8.84a.75.75 0 0 0-.69.458l-.781 1.854" />
</svg>
